X:1
T:Magnificat quinti toni - Lasso
T:#
%%score [ 1 2 3 4 ]
L:1/8
Q:1/4=130
M:none
K:F
V:1 treble nm="Soprano" snm="S"
V:2 treble nm="Alto" snm="A"
V:3 treble-8 nm="Tenor" snm="T"
V:4 bass nm="Bass" snm="B"
V:1
 x8 x2 | x16 ||"^Magnificat quinti toni""^Orlando di Lasso\n(1530-94)"[Q:1/4=200] F8 A4 c4 | %3
w: ||Et ex- ul-|
 A4 G4 A6 A2 | A4 (c2 B2 A2 B2 c4-) | %5
w: ta- vit spi- ri-|tus me\- * * * *|
[M:4/2][Q:1/4=200][Q:1/4=200][Q:1/4=200][Q:1/4=200] (c2 =BA B4) c8 | z4 A4 (c6 B2 | %7
w: * * * * us|in De\- *|
 A2 G2 A4) G4 A4 | B8 A4 G4 | F16 | E16 ||[M:4/2][Q:1/4=130][Q:1/4=130][Q:1/4=130][Q:1/4=130] z18 | %12
w: * * * o sa-|lu- ta- ri|me-|o.||
 z18 ||[Q:1/4=200][Q:1/4=200][Q:1/4=200][Q:1/4=200] z16 | z4 A4 c4 A4 | A4 A4 B4 G4 | A8 G8 | %17
w: ||Mi- hi ma-|gna qui po- tens|est, et|
 c8 A8 | B4 d4 c8 | ^c16 ||[Q:1/4=130][Q:1/4=130][Q:1/4=130][Q:1/4=130] z20 | z14 || %22
w: san- ctum|no- men e-|ius.|||
[Q:1/4=200][Q:1/4=200][Q:1/4=200][Q:1/4=200] F8 A8 | c4 A2 A2 G4 E4 | G2 G2 G4 E4 E2 E2 | %25
w: Fe- cit|po- ten- ti- am, po-|ten- ti- am in bra- chi-|
 D4 E4 E8 | z2 E2 G4 G2 G2 G4 |[M:4/2] G4 G2 G2 F2 F2 E4 | E4 E2 E2 F2 D2 d4 | ^c16 || %30
w: o su- o:|di- sper- sit su- per-|bos men- te cor- dis su-|i, men- te cor- dis su-|i.|
[Q:1/4=130] x14 | x16 | F8 A8 | c8 c8 | c4 c4 c4 c4 | d8 c8 | z4 c4 c2 c2 c4 | %37
w: ||E- su-|ri- en-|tes im- ple- vit|bo- nis:|et di- vi- tes,|
 z2 G2 G2 G2 G4 z2 G2 |[M:4/2] G4 A4 F4 G4 | E16 ||[Q:1/4=130] x16 x2 | x16 x4 | z8 F8 | %43
w: et di- vi- tes di-|mi- sit i- na-|nes.|||Si-|
 A4 c4 A2 A2 G2 A2 | A2 A2 B4 A8 | A6 A2 A8 |[M:4/2] G4 A2 A2 A8 | A8 G4 G4 | B6 B2 G4 A4- | %49
w: cut lo- cu- tus est ad|pa- tres no- stros,|A- bra- ham,|et se- mi- ni|e- ius in|sae- cu- la, e\-|
 A4 A4 d4 (G4- | G4 F2 E2 F4) F4 | E16 ||[Q:1/4=130][Q:1/4=130][Q:1/4=130][Q:1/4=130] z16 | z14 || %54
w: * ius in sae\-|* * * * cu-|la.|||
[Q:1/4=200][Q:1/4=200][Q:1/4=200][Q:1/4=200] A8 F4 G4 | A4 A6 A2 A2 A2 | G4 A4 B2 B2 A4 | %57
w: Si- cut e-|rat in prin- ci- pi-|o, et nunc, et sem-|
 G8 A6 A2 |[M:4/2] A2 A2 A4 G6 G2 |[Q:1/4=195] A8[Q:1/4=190] G4[Q:1/4=186] G4 | %60
w: per, et in|sae- cu- la sae- cu-|lo- rum, A-|
[Q:1/4=182] C4[Q:1/4=179] c2[Q:1/4=177] c2[Q:1/4=176] f2[Q:1/4=174] e2[Q:1/4=171] d4 | %61
w: men, sae- cu- lo- rum, A-|
[Q:1/4=170] ^c16 |] %62
w: men.|
V:2
 x8 x2 | x16 || z8 C8 | F4 E4 F4 E4 | F4 G4 (F6 EF) |[M:4/2] G4 G4 E8 | z4 F4 A4 F4 | z4 F4 E4 F4 | %8
w: ||Et|ex- ul- ta- vit|spi- ri- tus * *|* me- us|in De- o,|in De- o|
 (F2 B,2 D2 E2 F4) E4 | D4 A,4 D8 | ^C16 ||[M:4/2] z18 | z18 || z16 | z4 F4 F4 F4 | F4 F4 F4 E4 | %16
w: sa\- * * * * lu-|ta- ri me-|o.||||Mi- hi ma-|gna qui po- tens|
 F8 E8 | E4 E4 F4 F4 | (F8 E8) | E16 || z20 | z14 || z8 z4 C4- | C4 E8 G4 | E2 E2 E4 C4 C2 C2 | %25
w: est, et|san- ctum no- men|e\- *|ius.|||Fe\-|* cit po-|ten- ti- am in bra- chi-|
 A,4 C4 C8 | z2 C2 E4 E2 E2 E4 |[M:4/2] E4 E2 E2 D2 D2 C4 | C4 C2 C2 C2 B,2 B,4 | A,16 || %30
w: o su- o:|di- sper- sit su- per-|bos men- te cor- dis su-|i, men- te cor- dis su-|i.|
 F2 A2 c4 d2 c4 | c4 d2 =B2 c2 A2 A4 | z4 F8 D4 | E4 (F6 E2 F4) | C4 F4 E4 F4 | F8 F8 | %36
w: De- po- suit~potentes~de se- de|et~exal- ta- vit hu- mi- les.|E- su-|ri- en\- * *|tes im- ple- vit|bo- nis:|
 E4 E2 E2 E4 z2 E2 | E2 E2 E4 z2 E2 D4 |[M:4/2] E4 F4 D8 | ^C16 || x16 x2 | x16 x4 | B,8 D8 | %43
w: et di- vi- tes, et|di- vi- tes di- mi-|sit i- na-|nes.|||Si- cut|
 C4 C2 C2 F2 F2 E2 F2 | F4 D4 F6 F2 | F8 F6 F2 |[M:4/2] E4 F4 F6 F2 | F4 F4 (E2 D2 E2 F2 | %48
w: lo- cu- tus est ad pa- tres|no- stros, A- bra-|ham, A- bra-|ham, et se- mi-|ni e- ius * * *|
 G4) D4 _E4 C4 | F4 (F6 ED E4) | D12 D4 | ^C16 || z16 | z14 || C8 D4 E4 | F4 E2 E2 E2 E2 F4 | %56
w: * in sae- cu-|la, in * * *|sae- cu-|la.|||Si- cut e-|rat in prin- ci- pi- o,|
 E4 F4 F4 (F4- | F2 ED E4) F4 F4- |[M:4/2] F2 F2 F2 F2 E4 E2 E2 | F8 D4 E4 | F2 F4 C2 D2 E2 F4 | %61
w: et nunc, et sem\-|* * * * per, et|* in sae- cu- la sae- cu-|lo- rum, A-|men, sae- cu- lo- rum, A-|
 E16 |] %62
w: men.|
V:3
 F2 A2 c2 c4 | c4 d2 =B2 c2 A2 A4 || z4 F8 A4 | c4 c8 c4 | c4 c4 c8 |[M:4/2][K:treble-8] d8 c8- | %6
w: Ma- gni- fi- cat|anima me- a Do- mi- num.|Et ex-|ul- ta- vit|spi- ri- tus|me- us|
w: ||||||
 c8 z4 A4 | c4 c4 c4 c4 | d4 B4 c8 | A16- | A16 || F2 A2 c8 d2 c4 | c8 d2 =B2 c2 A4 || F8 A4 c4 | %14
w: * in|De- o sa- lu-|ta- ri me-|o.||Qui- a respexit~humilitatem~ancillae su- ae:|ecce~enim~ex~hoc~beatam * * * *|Qui- a fe-|
w: ||||||me~dicent~omnes~gene- ra- ti- o- nes.||
 c8 z8 | c8 d4 c4 | c4 c4 (c6 BA | G4) G4 d4 d4 | (d2 c2 B2 A2 G8) | A16 || F2 A2 c8 d2 c2 c4 | %21
w: cit|qui po- tens|est, et san\- * *|* ctum no- men|e\- * * * *|ius.|Et mi- sericordia~eius~a~progenie~in~pro- ge- ni- es|
w: |||||||
 c4 d2 =B2 c2 A4 || z4 F8 A4- | A4 c4 c2 c2 c4- | c4 c4 G6 G2 | F4 G4 G4 z2 A2 | G4 c2 c2 c4 c4 | %27
w: timen- ti- bus e- um.|Fe- cit|* po- ten- ti- am|* in bra- chi-|o su- o: di-|sper- sit su- per- bos|
w: ||||||
[M:4/2][K:treble-8] c6 c2 A2 B2 G4 | A4 G2 G2 A2 F2 G4 | E16 || x14 | x16 | z16 | z16 | %34
w: men- te cor- dis su-|i, men- te cor- dis su-|i.|||||
w: |||||||
 z4 A4 G4 A4 | B8 A8 | G4 G2 G2 G4 z2 G2 | c2 c2 c4 z2 c2 B4 | %38
w: Im- ple- vit|bo- nis:|et di- vi- tes, et|di- vi- tes di- mi-|
w: ||||
[M:4/2][K:treble-8] G2 c2 c4 B2 F2 B4 | A16 || F2 A2 c8 d2 c4 | c8 d2 =B2 B2 c2 A4 | z8 z4 F4- | %43
w: sit i- na- nes, i- na-|nes.|Su- sce- pit~Israel~puerum su- um|recordatus~miseri- cor- di- ae su- ae.|Si\-|
w: |||||
 F4 A4 c4 c2 c2 | c4 z4 z2 c2 c2 c2 | d4 c4 c6 c2 |[M:4/2][K:treble-8] c8 z4 c4 | c2 c2 c4 c4 c4 | %48
w: * cut lo- cu- tus|est ad pa- tres|no- stros, A- bra-|ham, et|se- mi- ni e- ius|
w: |||||
 z16 | d8 B4 c4 | A16- | A16 || F2 A2 c4 d2 c2 c4 | c4 d2 =B2 c2 A4 || F8 A4 c4 | %55
w: |in sae- cu-|la.||Glo- ri- a~Patri,~et Fi- li- o,|et~Spiri- tu- i San- cto:|Si- cut e-|
w: |||||||
 c4 c2 c2 c2 c2 c4 | c4 c4 d4 c4 | c8 z4 c4- |[M:4/2][K:treble-8] c2 c2 c2 c2 c4 c4 | c4 d4 B4 c4 | %60
w: rat in prin- ci- pi- o,|et nunc, et sem-|per, et|* in sae- cu- la sae-|cu- lo- rum, A-|
w: |||||
 A16- | A16 |] %62
w: men||
w: ||
V:4
 x8 x2 | x16 || z8 F,8 | F,4 C,4 F,4 A,4 | F,4 E,4 F,4 A,4 |[M:4/2] G,8 z4 C,4 | F,16 | %7
w: ||Et|ex- ul- ta- vit|spi- ri- tus me-|us in|De-|
 F,8 z4 F,4 | B,4 G,4 F,4 C,4 | D,4 D,4 D,8 | A,,16 ||[M:4/2] z18 | z18 || z4 F,4 D,4 E,4 | %14
w: o, in|De- o sa- lu-|ta- ri me-|o.|||Qui- a fe-|
 F,8 z8 | F,8 B,,4 C,4 | F,8 z4 C,4 | C,4 C,4 D,8 | B,,8 C,8 | A,,16 || z20 | z14 || z8 F,,8 | %23
w: cit|qui po- tens|est, et|san- ctum no-|men e-|ius.|||Fe-|
 A,,8 C,4 C,2 C,2 | C,8 C,4 C,2 C,2 | D,4 C,4 C,4 z2 A,,2 | C,4 C,2 C,2 C,4 C,4 | %27
w: cit po- ten- ti-|am in bra- chi-|o su- o: di-|sper- sit su- per- bos|
[M:4/2] C,4 C,4 D,2 B,,2 C,4 | A,,4 C,2 C,2 F,,2 B,,2 G,,4 | A,,16 || x14 | x16 | z16 | z16 | %34
w: men- te cor- dis su-|i, men- te cor- dis su-|i.|||||
 z4 F,4 C,4 F,4 | B,,8 F,8 | C,4 C,2 C,2 C,4 z2 C,2 | C,2 C,2 C,4 z2 C,2 G,4 | %38
w: Im- ple- vit|bo- nis:|et di- vi- tes, et|di- vi- tes di- mi-|
[M:4/2] C,2 C,2 F,4 B,,2 B,,2 G,,4 | A,,16 || x16 x2 | x16 x4 | z4 B,,8 D,4 | %43
w: sit i- na- nes, i- na-|nes.|||Si- cut|
 F,4 F,2 F,2 F,4 z2 F,2 | F,2 F,2 G,4 F,8 | z4 F,6 F,2 F,4 |[M:4/2] z4 F,4 F,2 F,2 F,4 | %47
w: lo- cu- tus est ad|pa- tres no- stros,|A- bra- ham,|et se- mi- ni|
 F,4 F,4 z8 | G,8 _E,4 F,4 | D,8 z8 | D,8 D,4 D,4 | A,,16 || z16 | z14 || F,8 D,4 C,4 | %55
w: e- ius|in sae- cu-|la,|in sae- cu-|la.|||Si- cut e-|
 F,4 A,2 A,2 A,2 A,2 F,4 | C,4 F,4 B,,4 F,4 | C,8 F,6 F,2 |[M:4/2] F,2 F,2 F,4 C,6 C,2 | %59
w: rat in prin- ci- pi- o,|et nunc, et sem-|per, et in|sae- cu- la sae- cu-|
 F,4 D,4 G,4 C,4 | F,6 F,2 D,2 ^C,2 D,4 | A,,16 |] %62
w: lo- rum, A- men,|sae- cu- lo- rum, A-|men.|

